static/images/service/banner/375.svg

<svg xmlns="http://www.w3.org/2000/svg" xmlns:xlink="http://www.w3.org/1999/xlink" width="670" height="925" viewBox="0 0 670 925">
    <defs>
        <linearGradient id="b" x1="76.232%" x2="23.768%" y1="0%" y2="100%">
            <stop offset="0%" stop-color="#703BEE"/>
            <stop offset="100%" stop-color="#1156CC"/>
        </linearGradient>
        <path id="a" d="M0 0h670v925H0z"/>
    </defs>
    <g fill="none" fill-rule="evenodd">
        <mask id="c" fill="#fff">
            <use xlink:href="#a"/>
        </mask>
        <use fill="url(#b)" style="mix-blend-mode:hard-light" xlink:href="#a"/>
        <path fill="#006CFF" fill-opacity=".4" d="M86.002 403.498c-24.025 0-43.505-19.475-43.505-43.5 0-24.024 19.48-43.496 43.505-43.496 24.021 0 43.5 19.472 43.5 43.496 0 24.025-19.479 43.5-43.5 43.5m0-188.498C5.918 215-59 279.92-59 359.998-59 440.08 5.918 505 86.002 505 166.082 505 231 440.08 231 359.998 231 279.92 166.082 215 86.002 215M610.817 107v52.5h-52.634V107H488v245h193V107h-70.183zM558 282h52v-52h-52v52z" mask="url(#c)" style="mix-blend-mode:multiply"/>
        <path fill="#006CFF" fill-opacity=".4" d="M521 597v160h80.001v-80.001H681V597z" mask="url(#c)" style="mix-blend-mode:multiply" transform="rotate(-180 601 677)"/>
    </g>
</svg>

<svg width="670" height="925" viewBox="0 0 670 925" fill="none" xmlns="http://www.w3.org/2000/svg">
<mask id="mask0" mask-type="alpha" maskUnits="userSpaceOnUse" x="0" y="0" width="670" height="925">
<path d="M0 0H670V925H0V0Z" fill="white"/>
</mask>
<g mask="url(#mask0)">
<path d="M0 0H670V925H0V0Z" fill="url(#paint0_linear)" style="mix-blend-mode:hard-light"/>
<g style="mix-blend-mode:multiply">
<path fill-rule="evenodd" clip-rule="evenodd" d="M86.002 403.498C61.977 403.498 42.497 384.023 42.497 359.998C42.497 335.974 61.977 316.502 86.002 316.502C110.023 316.502 129.502 335.974 129.502 359.998C129.502 384.023 110.023 403.498 86.002 403.498V403.498ZM86.002 215C5.918 215 -59 279.92 -59 359.998C-59 440.08 5.918 505 86.002 505C166.082 505 231 440.08 231 359.998C231 279.92 166.082 215 86.002 215V215ZM610.817 107V159.5H558.183V107H488V352H681V107H610.817ZM558 282H610V230H558V282Z" fill="#006CFF" fill-opacity="0.4"/>
</g>
<g style="mix-blend-mode:multiply">
<path fill-rule="evenodd" clip-rule="evenodd" d="M681 757V597H600.999V677.001H521V757H681Z" fill="#006CFF" fill-opacity="0.4"/>
</g>
</g>
<defs>
<linearGradient id="paint0_linear" x1="510.754" y1="-3.07027e-05" x2="-49.6464" y2="773.696" gradientUnits="userSpaceOnUse">
<stop stop-color="#703BEE"/>
<stop offset="1" stop-color="#1156CC"/>
</linearGradient>
</defs>
</svg>
